public/logos/NT.svg

<?xml version="1.0" encoding="UTF-8"?>
<svg xmlns="http://www.w3.org/2000/svg" xmlns:xlink="http://www.w3.org/1999/xlink" width="176pt" height="46.19pt" viewBox="0 0 176 46.19" version="1.1">
<defs>
<clipPath id="clip1">
  <path d="M 114 11 L 148 11 L 148 46.191406 L 114 46.191406 Z M 114 11 "/>
</clipPath>
</defs>
<g id="surface1">
<path style=" stroke:none;fill-rule:nonzero;fill:rgb(25.042725%,70.654297%,23.519897%);fill-opacity:1;" d="M 26.566406 18.363281 C 28.386719 18.363281 29.957031 17.863281 31.296875 16.871094 C 32.628906 15.875 33.289062 14.378906 33.289062 12.394531 C 33.289062 10.613281 32.820312 9.398438 31.867188 8.734375 C 30.914062 8.09375 29.632812 7.753906 28.027344 7.753906 L 17.480469 7.753906 L 15.261719 18.363281 Z M 23.691406 37.597656 C 25.988281 37.597656 27.859375 36.988281 29.324219 35.765625 C 30.769531 34.539062 31.5 32.714844 31.5 30.304688 C 31.5 29.109375 31.261719 28.183594 30.769531 27.503906 C 30.289062 26.835938 29.675781 26.316406 28.902344 25.949219 C 28.140625 25.589844 27.296875 25.371094 26.371094 25.285156 C 25.429688 25.207031 24.523438 25.160156 23.632812 25.160156 L 13.855469 25.160156 L 11.179688 37.597656 Z M 28.519531 -0.00390625 C 30.796875 -0.00390625 32.851562 0.144531 34.683594 0.445312 C 36.5 0.734375 38.050781 1.28125 39.308594 2.054688 C 40.582031 2.839844 41.554688 3.921875 42.242188 5.300781 C 42.917969 6.683594 43.253906 8.453125 43.253906 10.605469 C 43.253906 11.878906 43.074219 13.117188 42.691406 14.328125 C 42.3125 15.535156 41.738281 16.613281 41.007812 17.574219 C 40.261719 18.523438 39.371094 19.308594 38.335938 19.953125 C 37.296875 20.589844 36.097656 20.992188 34.746094 21.164062 L 34.746094 21.285156 C 36.898438 21.875 38.558594 23.011719 39.726562 24.683594 C 40.894531 26.351562 41.476562 28.292969 41.476562 30.492188 C 41.476562 32.953125 40.996094 35.113281 40.042969 36.980469 C 39.09375 38.839844 37.804688 40.382812 36.199219 41.609375 C 34.59375 42.84375 32.753906 43.777344 30.683594 44.40625 C 28.605469 45.042969 26.417969 45.359375 24.132812 45.359375 L 0 45.359375 L 9.464844 -0.00390625 L 28.519531 -0.00390625 "/>
<path style=" stroke:none;fill-rule:nonzero;fill:rgb(25.042725%,70.654297%,23.519897%);fill-opacity:1;" d="M 58.492188 12.53125 L 51.511719 45.359375 L 42.496094 45.359375 L 49.410156 12.53125 L 58.492188 12.53125 "/>
<path style=" stroke:none;fill-rule:nonzero;fill:rgb(25.042725%,70.654297%,23.519897%);fill-opacity:1;" d="M 71.515625 12.53125 L 70.5 17.128906 L 70.625 17.128906 C 73.550781 13.484375 77.382812 11.664062 82.128906 11.664062 C 88.519531 11.664062 91.71875 14.601562 91.71875 20.484375 C 91.71875 20.824219 91.671875 21.253906 91.585938 21.78125 C 91.503906 22.316406 91.40625 22.851562 91.300781 23.402344 C 91.195312 23.949219 91.085938 24.476562 90.980469 24.960938 C 90.878906 25.4375 90.792969 25.839844 90.761719 26.125 L 86.703125 45.359375 L 77.691406 45.359375 L 81.679688 26.132812 C 81.753906 25.632812 81.875 24.960938 82.03125 24.109375 C 82.183594 23.265625 82.253906 22.601562 82.253906 22.140625 C 82.253906 21.167969 81.789062 20.367188 80.890625 19.730469 C 79.976562 19.09375 78.996094 18.777344 77.929688 18.777344 C 76.578125 18.777344 75.382812 19.039062 74.347656 19.566406 C 73.304688 20.09375 72.414062 20.785156 71.675781 21.628906 C 70.929688 22.484375 70.324219 23.445312 69.839844 24.550781 C 69.335938 25.652344 68.972656 26.765625 68.734375 27.910156 L 65.046875 45.359375 L 56.089844 45.359375 L 62.882812 12.53125 L 71.515625 12.53125 "/>
<path style=" stroke:none;fill-rule:nonzero;fill:rgb(25.042725%,70.654297%,23.519897%);fill-opacity:1;" d="M 115.832031 12.53125 L 114.425781 18.542969 L 108.011719 18.542969 L 104.644531 34.878906 L 104.460938 35.792969 L 104.386719 36.402344 C 104.386719 37 104.488281 37.457031 104.683594 37.777344 L 105.40625 38.503906 L 106.390625 38.785156 L 107.449219 38.820312 C 108.539062 38.820312 109.617188 38.757812 110.683594 38.632812 L 109.148438 45.542969 C 108.222656 45.632812 107.296875 45.703125 106.359375 45.769531 C 105.425781 45.828125 104.476562 45.867188 103.511719 45.867188 C 102.441406 45.867188 101.40625 45.769531 100.359375 45.578125 C 99.316406 45.394531 98.390625 45.050781 97.5625 44.566406 C 96.75 44.078125 96.078125 43.410156 95.59375 42.566406 C 95.105469 41.71875 94.878906 40.617188 94.929688 39.257812 C 94.929688 38.835938 94.96875 38.359375 95.054688 37.832031 C 95.140625 37.304688 95.242188 36.742188 95.378906 36.152344 L 99.050781 18.542969 L 93.152344 18.542969 L 94.542969 12.527344 L 100.328125 12.527344 L 102.355469 2.570312 L 111.378906 2.570312 L 109.347656 12.527344 L 115.832031 12.53125 "/>
<g clip-path="url(#clip1)" clip-rule="nonzero">
<path style=" stroke:none;fill-rule:nonzero;fill:rgb(25.042725%,70.654297%,23.519897%);fill-opacity:1;" d="M 138.921875 22.933594 C 138.777344 22.101562 138.488281 21.355469 138.070312 20.683594 C 137.632812 20.007812 137.027344 19.457031 136.222656 19.0625 C 135.414062 18.65625 134.363281 18.453125 133.046875 18.453125 C 131.777344 18.453125 130.648438 18.648438 129.6875 19.027344 C 128.714844 19.410156 127.859375 19.917969 127.140625 20.550781 C 126.421875 21.191406 125.820312 21.921875 125.332031 22.777344 C 124.839844 23.613281 124.425781 24.507812 124.089844 25.433594 L 139.136719 25.433594 C 139.136719 24.585938 139.066406 23.757812 138.921875 22.933594 M 123.078125 31.699219 L 123.078125 33.027344 C 123.078125 34.9375 123.675781 36.476562 124.847656 37.660156 C 126.042969 38.851562 127.859375 39.4375 130.3125 39.4375 C 131.214844 39.4375 132 39.308594 132.699219 39.027344 C 133.394531 38.753906 134.015625 38.398438 134.539062 37.980469 C 135.074219 37.566406 135.53125 37.066406 135.945312 36.523438 C 136.34375 35.976562 136.707031 35.445312 137.054688 34.9375 L 146.066406 34.9375 C 145.351562 36.796875 144.496094 38.433594 143.527344 39.832031 C 142.558594 41.226562 141.394531 42.40625 140.03125 43.359375 C 138.683594 44.3125 137.097656 45.023438 135.304688 45.492188 C 133.496094 45.960938 131.425781 46.191406 129.042969 46.191406 C 126.839844 46.191406 124.839844 45.894531 123.050781 45.304688 C 121.238281 44.703125 119.710938 43.800781 118.453125 42.605469 C 117.175781 41.390625 116.195312 39.898438 115.5 38.125 C 114.792969 36.355469 114.449219 34.277344 114.449219 31.90625 C 114.449219 29.289062 114.871094 26.757812 115.71875 24.316406 C 116.566406 21.890625 117.753906 19.742188 119.300781 17.851562 C 120.855469 15.96875 122.734375 14.460938 124.980469 13.339844 C 127.222656 12.21875 129.753906 11.65625 132.53125 11.65625 C 134.839844 11.65625 136.910156 11.953125 138.800781 12.546875 C 140.683594 13.140625 142.289062 14.042969 143.628906 15.246094 C 144.96875 16.449219 145.988281 17.949219 146.742188 19.753906 C 147.480469 21.550781 147.847656 23.625 147.847656 25.992188 C 147.847656 27.597656 147.671875 29.304688 147.335938 31.125 L 123.136719 31.125 L 123.078125 31.699219 "/>
</g>
<path style=" stroke:none;fill-rule:nonzero;fill:rgb(25.042725%,70.654297%,23.519897%);fill-opacity:1;" d="M 163.105469 12.53125 L 161.769531 18.425781 L 161.894531 18.554688 C 162.914062 16.261719 164.453125 14.53125 166.503906 13.363281 C 168.550781 12.199219 170.789062 11.609375 173.199219 11.609375 C 174.128906 11.609375 175.0625 11.679688 176 11.816406 L 174.148438 20.585938 C 173.519531 20.457031 172.882812 20.335938 172.253906 20.207031 C 171.617188 20.085938 170.984375 20.015625 170.347656 20.015625 C 168.613281 20.015625 167.140625 20.308594 165.9375 20.910156 C 164.71875 21.503906 163.703125 22.304688 162.882812 23.320312 C 162.058594 24.332031 161.402344 25.492188 160.917969 26.78125 C 160.429688 28.074219 160.035156 29.414062 159.753906 30.8125 L 156.699219 45.359375 L 147.730469 45.359375 L 154.539062 12.53125 L 163.105469 12.53125 "/>
<path style=" stroke:none;fill-rule:nonzero;fill:rgb(25.042725%,70.654297%,23.519897%);fill-opacity:1;" d="M 50.429688 7.433594 L 52.082031 -0.00390625 L 61.15625 -0.00390625 L 59.511719 7.433594 L 50.429688 7.433594 "/>
</g>
</svg>

<svg xmlns="http://www.w3.org/2000/svg" width="176pt" height="61.587" viewBox="0 0 176 46.19"><defs><clipPath id="a"><path d="M114 11h34v35.191h-34Zm0 0"/></clipPath></defs><path d="M26.566 18.363c1.82 0 3.391-.5 4.73-1.492 1.333-.996 1.993-2.492 1.993-4.476 0-1.782-.469-2.997-1.422-3.66-.953-.641-2.234-.981-3.84-.981H17.48l-2.218 10.61Zm-2.875 19.235c2.297 0 4.168-.61 5.633-1.832 1.446-1.227 2.176-3.051 2.176-5.461 0-1.196-.238-2.121-.73-2.801a4.8 4.8 0 0 0-1.868-1.555c-.761-.36-1.605-.578-2.53-.664a33 33 0 0 0-2.74-.125h-9.777L11.18 37.598ZM28.52-.004q3.416 0 6.164.45c1.816.288 3.367.835 4.625 1.609 1.273.785 2.246 1.867 2.933 3.246q1.013 2.075 1.012 5.304c0 1.274-.18 2.512-.563 3.723a10.6 10.6 0 0 1-1.683 3.246 10.2 10.2 0 0 1-2.672 2.38q-1.561.953-3.59 1.21v.121c2.152.59 3.813 1.727 4.98 3.399 1.169 1.668 1.75 3.609 1.75 5.808q-.002 3.69-1.433 6.488a13.44 13.44 0 0 1-3.844 4.63q-2.409 1.852-5.515 2.796c-2.079.637-4.266.953-6.551.953H0L9.465-.004zM58.492 12.531l-6.98 32.828h-9.016l6.914-32.828zM71.516 12.531 70.5 17.13h.125c2.926-3.645 6.758-5.465 11.504-5.465 6.39 0 9.59 2.938 9.59 8.82q-.002.508-.133 1.297c-.082.535-.18 1.07-.285 1.621a67 67 0 0 1-.32 1.559c-.102.477-.188.879-.22 1.164l-4.058 19.234h-9.012l3.989-19.226c.074-.5.195-1.172.351-2.024.153-.843.223-1.507.223-1.968 0-.973-.465-1.774-1.363-2.41-.914-.637-1.895-.954-2.961-.954q-2.029-.001-3.582.79a8.8 8.8 0 0 0-2.672 2.062 11.3 11.3 0 0 0-1.836 2.922 15.7 15.7 0 0 0-1.106 3.36l-3.687 17.448H56.09l6.793-32.828zM115.832 12.531l-1.406 6.012h-6.414l-3.367 16.336-.184.914-.074.61q.002.895.297 1.374l.722.727.985.281 1.058.035q1.635 0 3.235-.187l-1.536 6.91c-.925.09-1.851.16-2.789.227-.933.058-1.882.097-2.847.097-1.07 0-2.106-.097-3.153-.289a8.4 8.4 0 0 1-2.796-1.012 5.5 5.5 0 0 1-1.97-2c-.488-.847-.714-1.949-.663-3.308q-.002-.634.125-1.426c.086-.527.187-1.09.324-1.68l3.672-17.609h-5.899l1.391-6.016h5.785l2.027-9.957h9.024l-2.031 9.957z" style="stroke:none;fill-rule:nonzero;fill:#40b43c;fill-opacity:1"/><g clip-path="url(#a)"><path d="M138.922 22.934a6.2 6.2 0 0 0-.852-2.25 4.5 4.5 0 0 0-1.847-1.622c-.809-.406-1.86-.609-3.176-.609-1.27 0-2.399.195-3.36.574-.972.383-1.828.891-2.546 1.524a8.8 8.8 0 0 0-1.809 2.226c-.492.836-.906 1.73-1.242 2.657h15.047c0-.848-.07-1.676-.215-2.5m-15.844 8.765v1.328c0 1.91.598 3.45 1.77 4.633 1.195 1.192 3.011 1.778 5.465 1.778.902 0 1.687-.13 2.386-.41a7.1 7.1 0 0 0 1.84-1.048c.535-.414.992-.914 1.406-1.457.399-.546.762-1.078 1.11-1.586h9.011c-.714 1.86-1.57 3.497-2.539 4.895a14 14 0 0 1-3.496 3.527c-1.347.953-2.933 1.664-4.726 2.133-1.809.469-3.88.7-6.262.7-2.203 0-4.203-.297-5.992-.887-1.813-.602-3.34-1.504-4.598-2.7-1.277-1.214-2.258-2.707-2.953-4.48-.707-1.77-1.05-3.848-1.05-6.219q-.001-3.926 1.269-7.59c.847-2.425 2.035-4.574 3.582-6.464a17.3 17.3 0 0 1 5.68-4.512c2.242-1.121 4.773-1.684 7.55-1.684 2.309 0 4.38.297 6.27.89 1.883.595 3.488 1.497 4.828 2.7s2.36 2.703 3.113 4.508c.738 1.797 1.106 3.871 1.106 6.238 0 1.606-.176 3.313-.512 5.133h-24.2z" style="stroke:none;fill-rule:nonzero;fill:#40b43c;fill-opacity:1"/></g><path d="m163.105 12.531-1.335 5.895.125.129q1.531-3.44 4.609-5.192c2.047-1.164 4.285-1.754 6.695-1.754q1.394 0 2.801.207l-1.852 8.77c-.628-.129-1.265-.25-1.894-.379a10 10 0 0 0-1.906-.191c-1.735 0-3.207.293-4.41.894a8.8 8.8 0 0 0-3.055 2.41 12.3 12.3 0 0 0-1.965 3.461 26 26 0 0 0-1.164 4.032l-3.055 14.546h-8.969l6.81-32.828zM50.43 7.434l1.652-7.438h9.074l-1.644 7.438z" style="stroke:none;fill-rule:nonzero;fill:#40b43c;fill-opacity:1"/></svg>
